resources/svg/refresh-alt.svg

<svg width="15" height="15" viewBox="0 0 15 15" fill="none" xmlns="http://www.w3.org/2000/svg">
<path fill-rule="evenodd" clip-rule="evenodd" d="M7.5 1C3.91015 1 1 3.91015 1 7.5H0C0 3.35786 3.35786 0 7.5 0C9.6733 0 11.6308 0.924852 13 2.40095V0H14V4L10 4V3L12.1905 3C11.007 1.76671 9.34315 1 7.5 1ZM7.5 14C11.0899 14 14 11.0899 14 7.5H15C15 11.6421 11.6421 15 7.5 15C5.3267 15 3.36918 14.0751 2 12.599V15H1V11H5V12H2.80955C3.993 13.2333 5.65685 14 7.5 14Z" fill="black"/>
</svg>

<svg viewBox="0 0 15 15" fill="none" xmlns="http://www.w3.org/2000/svg" fill="currentColor"><path fill-rule="evenodd" clip-rule="evenodd" d="M7.5 1A6.5 6.5 0 001 7.5H0a7.5 7.5 0 0113-5.1V0h1v4h-4V3h2.19A6.48 6.48 0 007.5 1zm0 13A6.5 6.5 0 0014 7.5h1a7.5 7.5 0 01-13 5.099V15H1v-4h4v1H2.81a6.48 6.48 0 004.69 2z" fill="currentColor"/></svg>
